X: 410
T: Pre Picior
O: Serbia
M: 2/4
L: 1/8
K: F
P:A
|:.B.c.B.c|F2F2|.B.c.B.c|F2F2|\
(3f_ed.c.B|F2F2|.B.c.B.c|F2F2:|
P:B
.f2.f2|.B.c.B.B|.f.g.f.B|cBB2::\
.F.B.B.B|.c.d.G.F|.F.B.B.B|.c.d.G.F:|
P:C
.F.B.B.B|.c.d.G.F|.F.B.B.B|[1(3BcBd2:|[2cdGF|
.F.B.B.B|.c.d.G.F|.F.B.B.B|[1(3BcBd2:|[2cdGF|



